Yaru++/mimetypes/48/text-x-tex.svg

<svg height="48" viewBox="0 0 12.699375 12.699375" width="48" xmlns="http://www.w3.org/2000/svg" xmlns:xlink="http://www.w3.org/1999/xlink"><linearGradient id="a" gradientUnits="userSpaceOnUse" x1="344" x2="344" y1="62" y2="106"><stop offset="0" stop-color="#fff"/><stop offset=".125" stop-color="#fff" stop-opacity=".098039"/><stop offset=".92500001" stop-color="#fff" stop-opacity=".098039"/><stop offset="1" stop-color="#fff" stop-opacity=".498039"/></linearGradient><clipPath id="b"><path d="m335.73108 62c-8.82418 0-9.77365.90635-9.7304 9.74838v12.25162 12.25162c-.0433 8.84203.90622 9.74838 9.7304 9.74838h16.53919c8.82418 0 9.7304-.90625 9.7304-9.74838v-12.25162-12.25162c0-8.84213-.90622-9.74838-9.7304-9.74838z"/></clipPath><linearGradient id="c" gradientTransform="matrix(0 -.02997086 .02997 0 -3.039509 13.625372)" gradientUnits="userSpaceOnUse" x1="459.03448" x2="35.310345" y1="419.23337" y2="207.36522"><stop offset="0" stop-color="#f2f2f2"/><stop offset="1" stop-color="#f9f9f9"/></linearGradient><path d="m4.1621982.39685633c-.5881821 0-1.0513178.0135407-1.4323995.0775109-.3810845.0639689-.692923.18395548-.9213477.41184073-.228422.22788554-.3489841.53958344-.4123566.92082874-.063373.3812456-.075744.8453924-.07286 1.4349839v3.2399529 3.241503c-.00286.5886855.00955 1.0525975.07286 1.4334335.063373.381246.1839346.692944.4123566.920829.2284247.227885.5402632.347873.9213477.411841.3810844.06397.8442174.07751 1.4323995.07751h4.3757443c.5881821 0 1.0510744-.01352 1.4313677-.07751.3802928-.064.6911788-.18439.9187598-.412357.227583-.227967.347434-.539443.411325-.920313.06389-.380868.07751-.844073.07751-1.4334335v-3.241503-3.241503c0-.5893606-.01363-1.0525644-.07751-1.4334338-.06389-.3808691-.183742-.6923442-.411325-.92031203-.227581-.22796754-.538467-.34836079-.9187598-.41235744-.3802933-.0639969-.8431856-.0775109-1.4313677-.0775109z" opacity=".1"/><path d="m4.1623596.39685633c-2.3346161 0-2.5858177.23979331-2.574375 2.57913197v3.2414149 3.2414149c-.011456 2.3393389.2397589 2.5791319 2.574375 2.5791319h4.3757787c2.3346157 0 2.5743747-.239767 2.5743747-2.5791319v-3.2414149-3.2414149c0-2.33936512-.239759-2.57913197-2.5743747-2.57913197z" fill="none" opacity=".2" stroke="#000" stroke-width=".529141"/><path d="m4.1623596.39685633c-2.3346161 0-2.5858177.23979331-2.574375 2.57913197v3.2414149 3.2414149c-.011456 2.3393389.2397589 2.5791319 2.574375 2.5791319h4.3757787c2.3346157 0 2.5743747-.239767 2.5743747-2.5791319v-3.2414149-3.2414149c0-2.33936512-.239759-2.57913197-2.5743747-2.57913197z" fill="url(#c)"/><path d="m7.1317883 4.3663052v.1193562h.079575c.2118653 0 .2848814.027429.3580722.135275l.7081857 1.074215-.6365721.9309891c-.0539326.0770429-.1679386.2546286-.5570051.2546286v.119359l.4296886-.015906c.1425293 0 .3546671.00436.4933443.015906v-.119359c-.1771986-.0038707-.2466721-.1136756-.2466721-.1830142 0-.034669.012832-.045154.039786-.087527l.5490443-.811633.6047442.9230327c.0077.01539.023864.028232.023864.039785 0 .046226-.088988.1155071-.2546278.1193564v.119359c.134825-.011551.4185767-.015906.5649582-.015906l.5013104.015906v-.119359h-.071616c-.2003115 0-.2851327-.023819-.3660277-.1432286l-.8116305-1.2254031.525172-.7718445c.0847472-.1232686.2221148-.2507764.5649582-.2546314v-.1193562l-.429686.015906c-.1540884 0-.3392612-.00436-.4933469-.015906v.1193562c.1540857.00387.2387165.086461.2387165.1750606 0 .038518-.00487.05311-.03183.095484l-.445603.6445316-.4933416-.7400156c-.00773-.011551-.023891-.040293-.023891-.055701 0-.046226.081027-.1155043.2466721-.1193593v-.1193565c-.134825.011551-.4185793.015906-.5649581.015906zm-4.1495181 0-.071614.8673314h.095483c.05393-.6201952.110601-.7479723.6922747-.7479723.069339 0 .1683672.0002521.206886.00797.080895.015419.087531.054629.087531.1432286v2.0734622c0 .1309729-.00132.1990304-.4058165.1909734h-.1591443v.1193564c.1579379-.011551.5548622-.015906.7320581-.015906.1772013 0 .5741229.00436.7320608.015906v-.1193576h-.1591417c-.4044751 0-.3978582-.060001-.3978582-.1909734v-2.073463c0-.077043-.00569-.12782.063658-.1432285.042371-.00771.1496092-.00797.2227999-.00797.5816737 0 .638342.1277771.6922721.7479723h.095489l-.0716192-.8673302zm2.1016857 1.0652667v.1193562h.095486c.2966151 0 .3023747.036381.3023747.1750577v2.0401459c0 .1386742-.00577.1830141-.3023747.1830141h-.095486v.1193561h2.2200465l.1671053-.994647h-.1034443c-.0963036.5932301-.1808921.8752909-.8434608.8752909h-.5092608c-.1810481 0-.1909695-.032024-.1909695-.1591446v-1.0359859h.3421582c.373658 0 .4217304.1261259.4217304.4535582h.095486v-1.0264731h-.095486c0 .3312815-.048072.4535556-.4217304.4535556h-.3421582v-.9325427c0-.1271178.00995-.151185.1909695-.151185h.4933469c.589378 0 .6942987.2045677.755933.7400156h.095486l-.1114026-.859372z" fill="#111"/><path d="m1.5878047 6.2174032v3.241503c-.011456 2.3393378.2397774 2.5790438 2.5743935 2.5790438h4.3757443c2.3346155 0 2.5743935-.239679 2.5743935-2.5790438v-3.241503z" fill="#fff" opacity=".2"/><path d="m6.3500704.39685633v11.64109367h2.1878721c2.3346155 0 2.5743935-.239679 2.5743935-2.5790438v-3.241503-3.241503c0-2.33936512-.239778-2.57904387-2.5743935-2.57904387z" fill="#fff" opacity=".1"/><path clip-path="url(#b)" d="m335.73108 62c-8.82418 0-9.77365.90635-9.7304 9.74838v12.25162 12.25162c-.0433 8.84203.90622 9.74838 9.7304 9.74838h16.53919c8.82418 0 9.7304-.90625 9.7304-9.74838v-12.25162-12.25162c0-8.84213-.90622-9.74838-9.7304-9.74838z" fill="none" opacity=".4" stroke="url(#a)" stroke-width="2" transform="matrix(.26457031 0 0 .26457031 -84.662117 -16.006503)"/></svg>

<?xml version="1.0" encoding="UTF-8" standalone="no"?>
<svg
   xmlns:dc="http://purl.org/dc/elements/1.1/"
   xmlns:cc="http://creativecommons.org/ns#"
   xmlns:rdf="http://www.w3.org/1999/02/22-rdf-syntax-ns#"
   xmlns:svg="http://www.w3.org/2000/svg"
   xmlns="http://www.w3.org/2000/svg"
   xmlns:xlink="http://www.w3.org/1999/xlink"
   xmlns:sodipodi="http://sodipodi.sourceforge.net/DTD/sodipodi-0.dtd"
   xmlns:inkscape="http://www.inkscape.org/namespaces/inkscape"
   width="48"
   height="48"
   version="1.1"
   viewBox="0 0 12.699375 12.699375"
   id="svg43"
   sodipodi:docname="text-x-tex.svg"
   inkscape:version="0.92.4 (5da689c313, 2019-01-14)">
  <metadata
     id="metadata47">
    <rdf:RDF>
      <cc:Work
         rdf:about="">
        <dc:format>image/svg+xml</dc:format>
        <dc:type
           rdf:resource="http://purl.org/dc/dcmitype/StillImage" />
        <dc:title></dc:title>
      </cc:Work>
    </rdf:RDF>
  </metadata>
  <sodipodi:namedview
     pagecolor="#ffffff"
     bordercolor="#666666"
     borderopacity="1"
     objecttolerance="10"
     gridtolerance="10"
     guidetolerance="10"
     inkscape:pageopacity="0"
     inkscape:pageshadow="2"
     inkscape:window-width="1222"
     inkscape:window-height="948"
     id="namedview45"
     showgrid="false"
     inkscape:zoom="13.854167"
     inkscape:cx="24"
     inkscape:cy="24"
     inkscape:window-x="83"
     inkscape:window-y="176"
     inkscape:window-maximized="0"
     inkscape:current-layer="svg43" />
  <defs
     id="defs17">
    <linearGradient
       id="linearGradient4226"
       x1="529.65503"
       x2="-35.310001"
       y1="401.58401"
       y2="119.093"
       gradientTransform="matrix(0,-0.11988932,0.11988589,0,0.36277975,292.5483)"
       gradientUnits="userSpaceOnUse">
      <stop
         style="stop-color:#f2f2f2"
         offset="0"
         id="stop2" />
      <stop
         style="stop-color:#f9f9f9"
         offset="1"
         id="stop4" />
    </linearGradient>
    <linearGradient
       id="linearGradient4358"
       x1="88"
       x2="488"
       y1="88"
       y2="488"
       gradientUnits="userSpaceOnUse">
      <stop
         style="stop-color:#000000;stop-opacity:.58823532"
         offset="0"
         id="stop7" />
      <stop
         style="stop-color:#000000;stop-opacity:0"
         offset=".88"
         id="stop9" />
      <stop
         style="stop-color:#000000"
         offset="1"
         id="stop11" />
    </linearGradient>
    <filter
       id="filter4346"
       width="1.026"
       height="1.022"
       x="-0.0099999998"
       y="-0.0099999998"
       style="color-interpolation-filters:sRGB">
      <feGaussianBlur
         stdDeviation="2.12"
         id="feGaussianBlur14" />
    </filter>
    <clipPath
       clipPathUnits="userSpaceOnUse"
       id="clipPath994">
      <path
         style="color:#000000;display:inline;overflow:visible;visibility:visible;fill:#cdcdcd;fill-opacity:1;fill-rule:nonzero;stroke:none;stroke-width:2;stroke-miterlimit:4;stroke-dasharray:none;stroke-opacity:1;marker:none;enable-background:accumulate"
         d="m 335.73108,62 c -8.82418,0 -9.77365,0.90635 -9.7304,9.74838 V 84 96.25162 c -0.0433,8.84203 0.90622,9.74838 9.7304,9.74838 h 16.53919 c 8.82418,0 9.7304,-0.90625 9.7304,-9.74838 V 84 71.74838 C 362.00067,62.90625 361.09445,62 352.27027,62 Z"
         id="path996"
         inkscape:connector-curvature="0"
         sodipodi:nodetypes="scccssscsss" />
    </clipPath>
    <clipPath
       clipPathUnits="userSpaceOnUse"
       id="clipPath994-3">
      <path
         style="color:#000000;display:inline;overflow:visible;visibility:visible;fill:#cdcdcd;fill-opacity:1;fill-rule:nonzero;stroke:none;stroke-width:2;stroke-miterlimit:4;stroke-dasharray:none;stroke-opacity:1;marker:none;enable-background:accumulate"
         d="m 335.73108,62 c -8.82418,0 -9.77365,0.90635 -9.7304,9.74838 V 84 96.25162 c -0.0433,8.84203 0.90622,9.74838 9.7304,9.74838 h 16.53919 c 8.82418,0 9.7304,-0.90625 9.7304,-9.74838 V 84 71.74838 C 362.00067,62.90625 361.09445,62 352.27027,62 Z"
         id="path996-6"
         inkscape:connector-curvature="0"
         sodipodi:nodetypes="scccssscsss" />
    </clipPath>
    <clipPath
       clipPathUnits="userSpaceOnUse"
       id="clipPath994-7">
      <path
         style="color:#000000;display:inline;overflow:visible;visibility:visible;fill:#cdcdcd;fill-opacity:1;fill-rule:nonzero;stroke:none;stroke-width:2;stroke-miterlimit:4;stroke-dasharray:none;stroke-opacity:1;marker:none;enable-background:accumulate"
         d="m 335.73108,62 c -8.82418,0 -9.77365,0.90635 -9.7304,9.74838 V 84 96.25162 c -0.0433,8.84203 0.90622,9.74838 9.7304,9.74838 h 16.53919 c 8.82418,0 9.7304,-0.90625 9.7304,-9.74838 V 84 71.74838 C 362.00067,62.90625 361.09445,62 352.27027,62 Z"
         id="path996-5"
         inkscape:connector-curvature="0"
         sodipodi:nodetypes="scccssscsss" />
    </clipPath>
    <clipPath
       clipPathUnits="userSpaceOnUse"
       id="clipPath994-35">
      <path
         style="color:#000000;display:inline;overflow:visible;visibility:visible;fill:#cdcdcd;fill-opacity:1;fill-rule:nonzero;stroke:none;stroke-width:2;stroke-miterlimit:4;stroke-dasharray:none;stroke-opacity:1;marker:none;enable-background:accumulate"
         d="m 335.73108,62 c -8.82418,0 -9.77365,0.90635 -9.7304,9.74838 V 84 96.25162 c -0.0433,8.84203 0.90622,9.74838 9.7304,9.74838 h 16.53919 c 8.82418,0 9.7304,-0.90625 9.7304,-9.74838 V 84 71.74838 C 362.00067,62.90625 361.09445,62 352.27027,62 Z"
         id="path996-62"
         inkscape:connector-curvature="0"
         sodipodi:nodetypes="scccssscsss" />
    </clipPath>
    <clipPath
       clipPathUnits="userSpaceOnUse"
       id="clipPath994-9">
      <path
         style="color:#000000;display:inline;overflow:visible;visibility:visible;fill:#cdcdcd;fill-opacity:1;fill-rule:nonzero;stroke:none;stroke-width:2;stroke-miterlimit:4;stroke-dasharray:none;stroke-opacity:1;marker:none;enable-background:accumulate"
         d="m 335.73108,62 c -8.82418,0 -9.77365,0.90635 -9.7304,9.74838 V 84 96.25162 c -0.0433,8.84203 0.90622,9.74838 9.7304,9.74838 h 16.53919 c 8.82418,0 9.7304,-0.90625 9.7304,-9.74838 V 84 71.74838 C 362.00067,62.90625 361.09445,62 352.27027,62 Z"
         id="path996-1"
         inkscape:connector-curvature="0"
         sodipodi:nodetypes="scccssscsss" />
    </clipPath>
    <linearGradient
       inkscape:collect="always"
       xlink:href="#linearGradient927"
       id="linearGradient1004"
       x1="344"
       y1="62"
       x2="344"
       y2="106"
       gradientUnits="userSpaceOnUse" />
    <linearGradient
       inkscape:collect="always"
       id="linearGradient927">
      <stop
         style="stop-color:#ffffff;stop-opacity:1;"
         offset="0"
         id="stop923" />
      <stop
         id="stop933"
         offset="0.125"
         style="stop-color:#ffffff;stop-opacity:0.09803922" />
      <stop
         id="stop931"
         offset="0.92500001"
         style="stop-color:#ffffff;stop-opacity:0.09803922" />
      <stop
         style="stop-color:#ffffff;stop-opacity:0.49803922"
         offset="1"
         id="stop925" />
    </linearGradient>
    <clipPath
       clipPathUnits="userSpaceOnUse"
       id="clipPath994-2">
      <path
         style="color:#000000;display:inline;overflow:visible;visibility:visible;fill:#cdcdcd;fill-opacity:1;fill-rule:nonzero;stroke:none;stroke-width:2;stroke-miterlimit:4;stroke-dasharray:none;stroke-opacity:1;marker:none;enable-background:accumulate"
         d="m 335.73108,62 c -8.82418,0 -9.77365,0.90635 -9.7304,9.74838 V 84 96.25162 c -0.0433,8.84203 0.90622,9.74838 9.7304,9.74838 h 16.53919 c 8.82418,0 9.7304,-0.90625 9.7304,-9.74838 V 84 71.74838 C 362.00067,62.90625 361.09445,62 352.27027,62 Z"
         id="path996-7"
         inkscape:connector-curvature="0"
         sodipodi:nodetypes="scccssscsss" />
    </clipPath>
    <linearGradient
       inkscape:collect="always"
       xlink:href="#linearGradient4338"
       id="linearGradient1024"
       gradientUnits="userSpaceOnUse"
       gradientTransform="matrix(0,-0.02997086,0.02997,0,-3.0395088,13.625372)"
       x1="459.03448"
       y1="419.23337"
       x2="35.310345"
       y2="207.36522" />
    <linearGradient
       inkscape:collect="always"
       id="linearGradient4338">
      <stop
         style="stop-color:#f2f2f2;stop-opacity:1"
         offset="0"
         id="stop4340" />
      <stop
         style="stop-color:#f9f9f9;stop-opacity:1"
         offset="1"
         id="stop4342" />
    </linearGradient>
  </defs>
  <path
     style="color:#000000;font-style:normal;font-variant:normal;font-weight:normal;font-stretch:normal;font-size:medium;line-height:normal;font-family:sans-serif;font-variant-ligatures:normal;font-variant-position:normal;font-variant-caps:normal;font-variant-numeric:normal;font-variant-alternates:normal;font-feature-settings:normal;text-indent:0;text-align:start;text-decoration:none;text-decoration-line:none;text-decoration-style:solid;text-decoration-color:#000000;letter-spacing:normal;word-spacing:normal;text-transform:none;writing-mode:lr-tb;direction:ltr;text-orientation:mixed;dominant-baseline:auto;baseline-shift:baseline;text-anchor:start;white-space:normal;shape-padding:0;clip-rule:nonzero;display:inline;overflow:visible;visibility:visible;opacity:0.1;isolation:auto;mix-blend-mode:normal;color-interpolation:sRGB;color-interpolation-filters:linearRGB;solid-color:#000000;solid-opacity:1;vector-effect:none;fill:#000000;fill-opacity:1;fill-rule:nonzero;stroke:none;stroke-width:0.52914065;stroke-linecap:butt;stroke-linejoin:miter;stroke-miterlimit:4;stroke-dasharray:none;stroke-dashoffset:0;stroke-opacity:1;marker:none;color-rendering:auto;image-rendering:auto;shape-rendering:auto;text-rendering:auto;enable-background:accumulate"
     d="m 4.1621982,0.39685633 c -0.5881821,0 -1.0513178,0.0135407 -1.4323995,0.0775109 C 2.3487142,0.53833613 2.0368757,0.65832271 1.808451,0.88620796 1.580029,1.1140935 1.4594669,1.4257914 1.3960944,1.8070367 1.3327214,2.1882823 1.3203504,2.6524291 1.3232344,3.2420206 v 3.2399529 3.241503 c -0.00286,0.5886855 0.00955,1.0525975 0.07286,1.4334335 0.063373,0.381246 0.1839346,0.692944 0.4123566,0.920829 0.2284247,0.227885 0.5402632,0.347873 0.9213477,0.411841 0.3810844,0.06397 0.8442174,0.07751 1.4323995,0.07751 h 4.3757443 c 0.5881821,0 1.0510744,-0.01352 1.4313677,-0.07751 0.3802928,-0.064 0.6911788,-0.18439 0.9187598,-0.412357 0.227583,-0.227967 0.347434,-0.539443 0.411325,-0.920313 0.06389,-0.380868 0.07751,-0.844073 0.07751,-1.4334335 v -3.241503 -3.241503 c 0,-0.5893606 -0.01363,-1.0525644 -0.07751,-1.4334338 C 11.235505,1.4261676 11.115653,1.1146925 10.88807,0.88672467 10.660489,0.65875713 10.349603,0.53836388 9.9693102,0.47436723 9.5890169,0.41037033 9.1261246,0.39685633 8.5379425,0.39685633 Z"
     id="path1020"
     inkscape:connector-curvature="0"
     sodipodi:nodetypes="sccsccccccsscccscsccsss" />
  <path
     style="color:#000000;display:inline;overflow:visible;visibility:visible;opacity:0.2;fill:none;fill-opacity:1;fill-rule:nonzero;stroke:#000000;stroke-width:0.52914065;stroke-miterlimit:4;stroke-dasharray:none;stroke-opacity:1;marker:none;enable-background:accumulate"
     d="m 4.1623596,0.39685633 c -2.3346161,0 -2.5858177,0.23979331 -2.574375,2.57913197 V 6.2174032 9.4588181 C 1.5765286,11.798157 1.8277435,12.03795 4.1623596,12.03795 h 4.3757787 c 2.3346157,0 2.5743747,-0.239767 2.5743747,-2.5791319 V 6.2174032 2.9759883 c 0,-2.33936512 -0.239759,-2.57913197 -2.5743747,-2.57913197 z"
     id="path958"
     inkscape:connector-curvature="0"
     sodipodi:nodetypes="scccssscsss" />
  <path
     style="color:#000000;display:inline;overflow:visible;visibility:visible;fill:url(#linearGradient1024);fill-opacity:1;fill-rule:nonzero;stroke:none;stroke-width:0.26457033;marker:none;enable-background:accumulate"
     d="m 4.1623596,0.39685633 c -2.3346161,0 -2.5858177,0.23979331 -2.574375,2.57913197 V 6.2174032 9.4588181 C 1.5765286,11.798157 1.8277435,12.03795 4.1623596,12.03795 h 4.3757787 c 2.3346157,0 2.5743747,-0.239767 2.5743747,-2.5791319 V 6.2174032 2.9759883 c 0,-2.33936512 -0.239759,-2.57913197 -2.5743747,-2.57913197 z"
     id="path964"
     inkscape:connector-curvature="0"
     sodipodi:nodetypes="scccssscsss" />
  <path
     sodipodi:nodetypes="ccsccccccccscccscccccsccccccccscccscccccccscsssccsccssscsccccccsssscccccssscsccccscssscccc"
     id="path940"
     d="m 7.1317883,4.3663052 v 0.1193562 h 0.079575 c 0.2118653,0 0.2848814,0.027429 0.3580722,0.135275 L 8.2776212,5.6951514 7.6410491,6.6261405 C 7.5871165,6.7031834 7.4731105,6.8807691 7.084044,6.8807691 v 0.119359 l 0.4296886,-0.015906 c 0.1425293,0 0.3546671,0.00436 0.4933443,0.015906 V 6.8807691 C 7.8298783,6.8768984 7.7604048,6.7670935 7.7604048,6.6977549 c 0,-0.034669 0.012832,-0.045154 0.039786,-0.087527 l 0.5490443,-0.811633 0.6047442,0.9230327 c 0.0077,0.01539 0.023864,0.028232 0.023864,0.039785 0,0.046226 -0.088988,0.1155071 -0.2546278,0.1193564 V 7.000128 C 8.8580405,6.988577 9.1417922,6.984222 9.2881737,6.984222 L 9.7894841,7.000128 V 6.880769 h -0.071616 c -0.2003115,0 -0.2851327,-0.023819 -0.3660277,-0.1432286 L 8.5402099,5.5121373 9.0653819,4.7402928 C 9.1501291,4.6170242 9.2874967,4.4895164 9.6303401,4.4856614 V 4.3663052 l -0.429686,0.015906 c -0.1540884,0 -0.3392612,-0.00436 -0.4933469,-0.015906 v 0.1193562 c 0.1540857,0.00387 0.2387165,0.086461 0.2387165,0.1750606 0,0.038518 -0.00487,0.05311 -0.03183,0.095484 L 8.4685907,5.4007376 7.9752491,4.660722 c -0.00773,-0.011551 -0.023891,-0.040293 -0.023891,-0.055701 0,-0.046226 0.081027,-0.1155043 0.2466721,-0.1193593 V 4.3663052 c -0.134825,0.011551 -0.4185793,0.015906 -0.5649581,0.015906 z m -4.1495181,0 -0.071614,0.8673314 h 0.095483 c 0.05393,-0.6201952 0.110601,-0.7479723 0.6922747,-0.7479723 0.069339,0 0.1683672,2.521e-4 0.206886,0.00797 0.080895,0.015419 0.087531,0.054629 0.087531,0.1432286 v 2.0734622 c 0,0.1309729 -0.00132,0.1990304 -0.4058165,0.1909734 H 3.4278701 v 0.1193564 c 0.1579379,-0.011551 0.5548622,-0.015906 0.7320581,-0.015906 0.1772013,0 0.5741229,0.00436 0.7320608,0.015906 V 6.9012973 H 4.7328473 c -0.4044751,0 -0.3978582,-0.060001 -0.3978582,-0.1909734 v -2.073463 c 0,-0.077043 -0.00569,-0.12782 0.063658,-0.1432285 0.042371,-0.00771 0.1496092,-0.00797 0.2227999,-0.00797 0.5816737,0 0.638342,0.1277771 0.6922721,0.7479723 h 0.095489 L 5.3375889,4.3663045 Z m 2.1016857,1.0652667 v 0.1193562 h 0.095486 c 0.2966151,0 0.3023747,0.036381 0.3023747,0.1750577 v 2.0401459 c 0,0.1386742 -0.00577,0.1830141 -0.3023747,0.1830141 H 5.0839559 V 8.0685019 H 7.3040024 L 7.4711077,7.0738549 H 7.3676634 C 7.2713598,7.667085 7.1867713,7.9491458 6.5242026,7.9491458 H 6.0149418 c -0.1810481,0 -0.1909695,-0.032024 -0.1909695,-0.1591446 V 6.7540153 h 0.3421582 c 0.373658,0 0.4217304,0.1261259 0.4217304,0.4535582 h 0.095486 V 6.1811004 h -0.095486 c 0,0.3312815 -0.048072,0.4535556 -0.4217304,0.4535556 H 5.8239723 V 5.7021133 c 0,-0.1271178 0.00995,-0.151185 0.1909695,-0.151185 h 0.4933469 c 0.589378,0 0.6942987,0.2045677 0.755933,0.7400156 h 0.095486 L 7.2483051,5.4315719 Z"
     style="font-style:normal;font-variant:normal;font-weight:normal;font-stretch:normal;font-size:15.12844849px;line-height:125%;font-family:'Latin Modern Roman';-inkscape-font-specification:'Latin Modern Roman';text-align:start;letter-spacing:0px;word-spacing:0px;writing-mode:lr-tb;text-anchor:start;display:inline;opacity:1;fill:#111111;fill-opacity:1;stroke:none;stroke-width:0.18092084;enable-background:new"
     inkscape:connector-curvature="0" />
  <path
     style="color:#000000;display:inline;overflow:visible;visibility:visible;opacity:0.2;fill:#ffffff;fill-opacity:1;fill-rule:nonzero;stroke:none;stroke-width:0.26457033;marker:none;enable-background:accumulate"
     d="m 1.5878047,6.2174032 v 3.241503 C 1.5763487,11.798244 1.8275821,12.03795 4.1621982,12.03795 h 4.3757443 c 2.3346155,0 2.5743935,-0.239679 2.5743935,-2.5790438 v -3.241503 z"
     id="path1006"
     inkscape:connector-curvature="0" />
  <path
     style="color:#000000;display:inline;overflow:visible;visibility:visible;opacity:0.1;fill:#ffffff;fill-opacity:1;fill-rule:nonzero;stroke:none;stroke-width:0.26457033;marker:none;enable-background:accumulate"
     d="M 6.3500704,0.39685633 V 12.03795 h 2.1878721 c 2.3346155,0 2.5743935,-0.239679 2.5743935,-2.5790438 v -3.241503 -3.241503 c 0,-2.33936512 -0.239778,-2.57904387 -2.5743935,-2.57904387 z"
     id="path1013"
     inkscape:connector-curvature="0" />
  <path
     transform="matrix(0.26457031,0,0,0.26457031,-84.662117,-16.006503)"
     sodipodi:nodetypes="scccssscsss"
     inkscape:connector-curvature="0"
     id="path990"
     d="m 335.73108,62 c -8.82418,0 -9.77365,0.90635 -9.7304,9.74838 V 84 96.25162 c -0.0433,8.84203 0.90622,9.74838 9.7304,9.74838 h 16.53919 c 8.82418,0 9.7304,-0.90625 9.7304,-9.74838 V 84 71.74838 C 362.00067,62.90625 361.09445,62 352.27027,62 Z"
     style="color:#000000;display:inline;overflow:visible;visibility:visible;opacity:0.4;fill:none;fill-opacity:1;fill-rule:nonzero;stroke:url(#linearGradient1004);stroke-width:2;stroke-miterlimit:4;stroke-dasharray:none;stroke-opacity:1;marker:none;enable-background:accumulate"
     clip-path="url(#clipPath994-2)" />
</svg>
